X: 29902
T: O'Neill's March
R: polka
M: 2/4
K: Eminor
M:4/4
|:B2g2 f2a2|e2g2 gfed|B2g2 f2a2|e2g2 gfed:|
e2e2 fedB|e2e2 fedB|e2de fedB|e2de fedB|
|:A2AB G2GB|A2e2 edBG|A2AB G2GB|1 A2e2 edBG:|2 A2e2 edBA||

